X:96
T:Maggie Scollard's Polka
B:Terry "Cuz" Teahan "Sliabh Luachra on Parade" 1980
Z:Patrick Cavanagh
M:2/4
L:1/8
R:Polka
K:G
| dg fe | dB GA/B/ | cA ed/c/ | Bd G2 | 
dg fe | dB GA/B/ | cA ed | G2 G2 :| 
| dg bd' | c'a ag | f/e/d ef | ag fe | 
dg bd' | c'a ag | f/e/d ef | g2 g2 :|| 

